X: 273
T: Kilkenny Tune
R: air, hornpipe
%S: s:2 b:16(8+8)
B: O'Neill's 1850 #273
Z: 1997 by John Chambers <jc@trillian.mit.edu>
N: Compacted via repeats and multiple endings [JC]
N: Compacted by using labels and play order [JC]
P: Play (A1A2)x2 + (BA2)x2
Q: "Lively"
M: C
L: 1/8
K: G
"^A"|:(d>c) | B2(A>B) (G>A)(G>E) | D2G2 G2(B>c) |[1,3 (dB)(ge) (dB)(GB) | (dc)(Bc) A2 :|[2,4 d2(g>e) (d>c)(B>A) | G4- G2 :|
"^B"[| de | (=f>e)(f>g) f2(d>e) | (=f>e)(f>g) f2(A>B) | (c>B)(c>d) (c>B)(c>d) | (c>B)(c>d) ((3cd"^->A2"e) |]
